X:1
T:Title
%%score [ 1 2 3 4 ]
L:1/8
Q:1/4=400
M:2/1
K:F
V:1 treble nm="MusicXML Part"
V:2 treble-8 nm="MusicXML Part"
V:3 treble-8 nm="MusicXML Part"
V:4 bass nm="MusicXML Part"
V:1
 B8 B4 B4 | A12 B4 | A4 G4 G4 ^F4 | G16 | B8 B4 B4 | A2 G2 A2 B2 A4 B4 | A4 G4 G4 ^F4 | G8 z4 G4 | %8
w: Hé- las ma-|dame, cel-|le que j'ai- me|tant|Souf- frez que|sois * * * * vo-|tre hum- ble ser-|vant, Vo-|
 G4 F4 G4 A4 | B8 B4 B4 | c4 B4 B4 A4 | B12 B4 | B6 B2 B4 B4 | A12 B4 | A4 G4 G4 ^F4 | G12 G4 | %16
w: tre hum- ble ser-|vant je se-|rai * a tou-|jours, Ed|tant que je viv'-|rai ault'|n'ai- me- rai que|vous, Et|
 B6 B2 B4 B4 | A2 G2 A2 B2 A4 B4 | A4 G4 G4 ^F4 | G16 |] %20
w: tant que je viv'-|rai * * * * aultr'|n'ai- me- rai que|vous.|
V:2
 d8 d4 d4 | c12 d4 | c2 B2 A2 G2 A4 A4 | G16 | d8 d4 d4 | c12 d4 | c4 B4 A4 A4 | G8 z4 G4 | %8
w: Hé- las ma-|dame, cel-|le * que * j'ai- me|tant|Souf- frez que|sois vo-|tre hum- ble ser-|vant, Vo-|
 B6 A2 B4 c4 | d8 d4 d4 | _e6 d2 c4 c4 | B12 B4 | d6 d2 d4 d4 | c12 d4 | c2 B2 A2 G2 A4 A4 | %15
w: tre * ble ser-|vant je se-|rai * a tou-|jours, Ed|tant que je viv'-|rai ault'|n'ai- * me- * rai que|
 G12 G4 | G4 G4 d8- | d4 d4 c4 d4 | c4 B4 A4 A4 | G16 |] %20
w: vous, Et|tant que je|* viv'- rai aultr'|n'ai- me- rai que|vous.|
V:3
 G6 F2 G2 A2 B2 c2 | d2 e2 f8 g4 | f4 _e4 d6 d2 | d16 | B8 B4 B4 | f12 g4 | f4 _e4 d6 d2 | %7
w: Hé- * las * ma- *|dame, * * cel-|le que j'ai- me|tant|Souf- frez que|sois vo-|tre hum- ble ser-|
 d8 z4 B4 | d4 d4 d2 c2 d2 e2 | f8 F4 G4 | c4 F2 G2 A2 F2 f4 | d12 d4 | d4 G2 F2 G2 A2 B2 c2 | %13
w: vant, Vo-|tre hum- ble * ser- *|vant je se-|rai * * a * tou-|jours, Ed|tant que * je * viv'- *|
 d2 e2 f8 g4 | f4 _e4 d6 d2 | d16 | B6 B2 B4 B4 | f12 g4 | f4 _e4 d6 d2 | d16 |] %20
w: rai * * ault'|n'ai- me- rai que|vous,|tant que je viv'-|rai aultr'|n'ai- me- rai que|vous.|
V:4
 G,,6 A,,2 B,,2 C,2 D,2 E,2 | F,12 B,,4 | F,4 G,4 D,4 D,4 | G,,16 | G,8 G,4 G,4 | %5
w: Hé- * las * ma- *|dame, cel-|le que j'ai- me|tant|Souf- frez que|
 F,2 E,2 F,2 G,2 F,4 B,,4 | F,4 G,4 D,4 D,4 | G,,8 z4 G,4 | G,4 D,4 G,4 F,4 | B,,8 B,,4 B,,4 | %10
w: sois * * * * vo-|tre hum- ble ser-|vant, Vo-|tre hum- ble ser-|vant je se-|
 A,,4 B,,4 F,6 E,F, | G,4 F,2 E,2 D,2 C,2 B,,4 | G,,6 A,,2 B,,2 C,2 D,2 E,2 | F,12 B,,4 | %14
w: rai * a tou- *|jours, * * * * Ed|tant que je * viv'- *|rai ault'|
 F,4 G,4 D,6 D,2 | G,,16 | G,8 G,4 G,4 | F,2 E,2 F,2 G,2 F,4 B,,4 | F,4 G,4 D,4 D,4 | G,,16 |] %20
w: n'ai- me- rai que|vous,|tant je viv'-|rai * * * * aultr'|n'ai- me- rai que|vous.|

